RobotController/static/assets/robotDiagram/robotDiagram-FathomX.svg

<?xml version="1.0" encoding="UTF-8"?>
<svg enable-background="new 0 0 40.255 27.95" version="1.1" viewBox="0 0 40.255 27.95" xml:space="preserve" xmlns="http://www.w3.org/2000/svg">

	
		<path d="M1.849,0h34.888c1.021,0,1.849,0.828,1.849,1.849v24.251c0,1.021-0.828,1.849-1.849,1.849H1.849    C0.828,27.95,0,27.122,0,26.101V1.849C0,0.828,0.828,0,1.849,0z" fill="#3B3B3C"/>
		<path d="m27.941 4.118h10.778c0.572 0 1.036 0.464 1.036 1.036v6.869c0 0.572-0.464 1.036-1.036 1.036h-10.778c-0.572 0-1.036-0.464-1.036-1.036v-6.869c0-0.572 0.464-1.036 1.036-1.036z" fill="#666" stroke="#666" stroke-miterlimit="10"/>
		<path d="m20.364 19.884h13.489c0.592 0 1.071 0.48 1.071 1.071v3.362c0 0.592-0.48 1.071-1.071 1.071h-13.489c-0.592 0-1.071-0.48-1.071-1.071v-3.362c0-0.591 0.48-1.071 1.071-1.071z" fill="#1E1E1E" stroke="#1E1E1E" stroke-miterlimit="10"/>
		<path d="m5.873 2.959h8.332c0.683 0 1.237 0.554 1.237 1.237v19.557c0 0.683-0.554 1.237-1.237 1.237h-8.332c-0.683 0-1.237-0.554-1.237-1.237v-19.556c0-0.684 0.554-1.238 1.237-1.238z" fill="#666" stroke="#666" stroke-miterlimit="10"/>
		<path d="m8.222 7.341h3.634c0.576 0 1.042 0.467 1.042 1.042v3.634c0 0.576-0.467 1.042-1.042 1.042h-3.634c-0.576 0-1.042-0.467-1.042-1.042v-3.634c0-0.575 0.466-1.042 1.042-1.042z" fill="#262626" stroke="#262626" stroke-miterlimit="10"/>
	


</svg>

<?xml version="1.0" encoding="iso-8859-1"?>
<!-- Generator: Adobe Illustrator 24.0.1, SVG Export Plug-In . SVG Version: 6.00 Build 0)  -->
<svg version="1.1" xmlns="http://www.w3.org/2000/svg" xmlns:xlink="http://www.w3.org/1999/xlink" x="0px" y="0px"
	 viewBox="0 0 40.255 27.95" style="enable-background:new 0 0 40.255 27.95;" xml:space="preserve">
<g id="FathomX">
	<g>
		<path style="fill:#3B3B3C;" d="M1.849,0h34.888c1.021,0,1.849,0.828,1.849,1.849v24.251c0,1.021-0.828,1.849-1.849,1.849H1.849
			C0.828,27.95,0,27.122,0,26.101V1.849C0,0.828,0.828,0,1.849,0z"/>
		<path style="fill:#666666;stroke:#666666;stroke-miterlimit:10;" d="M27.941,4.118h10.778c0.572,0,1.036,0.464,1.036,1.036v6.869
			c0,0.572-0.464,1.036-1.036,1.036H27.941c-0.572,0-1.036-0.464-1.036-1.036V5.154C26.905,4.582,27.369,4.118,27.941,4.118z"/>
		<path style="fill:#1E1E1E;stroke:#1E1E1E;stroke-miterlimit:10;" d="M20.364,19.884h13.489c0.592,0,1.071,0.48,1.071,1.071v3.362
			c0,0.592-0.48,1.071-1.071,1.071H20.364c-0.592,0-1.071-0.48-1.071-1.071v-3.362C19.293,20.364,19.773,19.884,20.364,19.884z"/>
		<path style="fill:#666666;stroke:#666666;stroke-miterlimit:10;" d="M5.873,2.959h8.332c0.683,0,1.237,0.554,1.237,1.237v19.557
			c0,0.683-0.554,1.237-1.237,1.237H5.873c-0.683,0-1.237-0.554-1.237-1.237V4.197C4.636,3.513,5.19,2.959,5.873,2.959z"/>
		<path style="fill:#262626;stroke:#262626;stroke-miterlimit:10;" d="M8.222,7.341h3.634c0.576,0,1.042,0.467,1.042,1.042v3.634
			c0,0.576-0.467,1.042-1.042,1.042H8.222c-0.576,0-1.042-0.467-1.042-1.042V8.383C7.18,7.808,7.646,7.341,8.222,7.341z"/>
	</g>
</g>
<g id="Layer_1">
</g>
</svg>
